src/assets/icons/biz-money,simple,credit-card.svg

<svg width="48" height="48" viewBox="0 0 48 48" fill="none" xmlns="http://www.w3.org/2000/svg">
<rect opacity="0.2" x="5" y="5" width="38" height="38" rx="4" fill="black"/>
<rect opacity="0.2" x="10" y="20" width="28" height="3" fill="black"/>
<rect opacity="0.6" x="13" y="29" width="10" height="2" rx="1" fill="black"/>
<path fill-rule="evenodd" clip-rule="evenodd" d="M10.035 20H37.965C37.8873 18.1277 37.6366 16.9797 36.8284 16.1716C35.6569 15 33.7712 15 30 15H18C14.2288 15 12.3431 15 11.1716 16.1716C10.3634 16.9797 10.1127 18.1277 10.035 20ZM38 23L10 23V25C10 28.7712 10 30.6569 11.1716 31.8284C12.3431 33 14.2288 33 18 33H30C33.7712 33 35.6569 33 36.8284 31.8284C38 30.6569 38 28.7712 38 25V23ZM14 29C13.4477 29 13 29.4477 13 30C13 30.5523 13.4477 31 14 31H22C22.5523 31 23 30.5523 23 30C23 29.4477 22.5523 29 22 29H14Z" fill="black"/>
</svg>

<svg xmlns="http://www.w3.org/2000/svg" width="48" height="48" fill="none" viewBox="0 0 48 48">
  <rect width="38" height="38" x="5" y="5" fill="#000" opacity=".2" rx="4"/>
  <path fill="#000" d="M10 20h28v3H10z" opacity=".2"/>
  <rect width="10" height="2" x="13" y="29" fill="#000" opacity=".6" rx="1"/>
  <path fill="#000" fill-rule="evenodd" d="M10.035 20h27.93c-.078-1.872-.328-3.02-1.137-3.828C35.657 15 33.771 15 30 15H18c-3.771 0-5.657 0-6.828 1.172-.809.808-1.06 1.956-1.137 3.828zM38 23H10v2c0 3.771 0 5.657 1.172 6.828C12.343 33 14.229 33 18 33h12c3.771 0 5.657 0 6.828-1.172C38 30.657 38 28.771 38 25v-2zm-24 6a1 1 0 100 2h8a1 1 0 100-2h-8z" clip-rule="evenodd"/>
</svg>
